src/lib/packages/icons/src/assets/filled/comment-text.svg

<svg width="24" height="24" viewBox="0 0 24 24" fill="none" xmlns="http://www.w3.org/2000/svg">
<path d="M12 4C7.03 4 3 6.99998 3 12.001C3 14.121 3.72995 15.892 4.94995 17.212C4.79995 18.172 4.25992 19.272 3.16992 20.152C2.83992 20.432 3.02996 20.9819 3.45996 20.9919C4.87996 21.0419 7.06991 20.852 8.40991 19.422C9.50991 19.802 10.72 20.002 12 20.002C16.97 20.002 21 17.001 21 12.001C21 6.99998 16.97 4 12 4ZM13 14.75H8C7.586 14.75 7.25 14.414 7.25 14C7.25 13.586 7.586 13.25 8 13.25H13C13.414 13.25 13.75 13.586 13.75 14C13.75 14.414 13.414 14.75 13 14.75ZM16 10.75H8C7.586 10.75 7.25 10.414 7.25 10C7.25 9.586 7.586 9.25 8 9.25H16C16.414 9.25 16.75 9.586 16.75 10C16.75 10.414 16.414 10.75 16 10.75Z" fill="currentColor"/>
</svg>

<svg xmlns="http://www.w3.org/2000/svg" width="24" height="24" fill="none"><path fill="currentColor" d="M12 4c-4.97 0-9 3-9 8.001 0 2.12.73 3.891 1.95 5.211-.15.96-.69 2.06-1.78 2.94-.33.28-.14.83.29.84 1.42.05 3.61-.14 4.95-1.57 1.1.38 2.31.58 3.59.58 4.97 0 9-3.001 9-8.001C21 7 16.97 4 12 4Zm1 10.75H8a.75.75 0 0 1 0-1.5h5a.75.75 0 0 1 0 1.5Zm3-4H8a.75.75 0 0 1 0-1.5h8a.75.75 0 0 1 0 1.5Z"/></svg>
